X:1
T:Title
%%score 1 2
L:1/8
Q:1/4=90
M:4/4
K:Eb
V:1 treble nm="Strings 1, Soprano"
V:2 bass nm="Strings 1, Bass"
V:1
 z4 z2 [B,E]2 | [B,E][EG][GB][Ge] [Bd][Ac][GB][FA] | [EG]2 [DF]2 E2 [GB][GB] | %3
w: 1.~If~|you~ would~ be~ a~ pil lar~ in~ the~|church~ of~ God,~ You~ must~|
 [Ac]3 [Ac] [Ad]3 [Ad] | [Ge]6 [Ge][Ge] | [Fd]3 [Ec] [DB]3 [C=A] | %6
w: o ver come~ the~|world,~ You~ must~|o ver come~ the~|
 [DB]6 [EB]>[Q:1/4=90][FA][Q:1/4=12] | [EG]>[EG] [EG]>[FA] [GB]>[EG] [EG]>[EG] | %8
w: world;~ Die~ to~|fame~ and~ rep u ta tion,~ take~ the~|
 [EA]>[EA] [EA]>[EB] [Ec]2 [Ad]2 | [Ge]>[Ge] [Ge]>[Ac] [GB]>[GB] [GB]>[FA] | [EG]2 [DF]2 E4 | %11
w: path~ that~ Je sus~ trod,~ If~|you~ would~ be~ a~ pil lar~ in~ the~|church~ of~ God.~|
 [GB]>[GB] [GB]>[GB] [GB]>[FA] [EG]>[DF] | E2 [DF]2 [EG]2 [GB]>[GB] | %13
w: ||
 [Ac]>[Ac] [Ac]>[Ac] [Ac]>[GB] [FA]>[EG] | [DF]2 [DB]2 [DB]2 [EB]>[EB] | %15
w: ||
 [Ge]>[Ge] [Ge]>[Ge] [Ge]>[GB] [GB]>[EG] | [EA]2 [EB]2 [Ec]2[Q:1/4=90] [Ac]>[Ad][Q:1/4=12] | %17
w: ||
 [Ge]>[Ge] [Bd]>[Ac] [GB]>[EG] E>[EF] | [EG]2 [DF]2 E2[Q:1/4=90] z2[Q:1/4=12] |] %19
w: ||
V:2
 z4 z2 [E,G,]2 | [E,G,][E,B,][E,E][E,B,] [E,E][E,E][E,E][A,,C] | %2
 [B,,B,]2 [B,,A,]2 [E,G,]2 [E,E][E,E] | [A,E]3 [F,B,] B,3 B, | [E,B,]6 [C,C][C,C] | %5
 [F,B,]3 [F,=A,] F,3 F, | [B,,F,]6 [E,G,]>[E,A,] | %7
 [E,B,]>[E,B,] [E,B,]>[E,B,] [E,E]>[E,B,] [E,B,]>[E,B,] | [A,C]>[A,C] [A,C]>[A,C] [A,E]2 B,2 | %9
 [E,B,]>[E,B,] [E,B,]>[E,E] [E,E]>[E,E] [E,E]>[A,,C] | [B,,B,]2 [B,,A,]2 [E,G,]4 | %11
 [E,E]>[E,E] [E,E]>[E,E] [E,E]>[E,B,] [E,B,]>[A,,A,] | [C,G,]2 [B,,B,]2 [E,B,]2 [E,E]>[E,E] | %13
 [A,E]>[A,E] [A,E]>[A,E] [E,E]>[E,E] [E,B,]>[E,B,] | [B,,B,]2 [B,,F,]2 [B,,F,]2 [E,G,]>[E,G,] | %15
 [E,B,]>[E,B,] [E,B,]>[E,B,] [E,B,]>[E,E] [E,E]>[E,B,] | [E,C]2 [G,B,]2 A,2 [F,B,]>[F,B,] | %17
 [E,B,]>[E,B,] [E,E]>[E,E] [E,E]>[E,B,] [C,=A,]>[C,A,] | [B,,B,]2 [B,,A,]2 [E,G,]2 z2 |] %19

